X:21
T:Niel Gow's Fiddle
R:strathspey
C:Nathaniel Gow
O:Scottish
B:The Cape Breton Collection 1940
D:John Campbell, Cape Breton Violin Music (1975-2006)
Z:Paul Stewart Cranford (P.S.C.), <http://www.cranfordpub.com>
L:1/8
M:C
Q:288
K:Dmix
f/e/|d>D B/A/G/F/ E<C Cf/e/|d>D B/A/G/F/ d2 df/e/|d>D B/A/G/F/ E<C CE|D>Fd<F A2 A:|
f/g/|a>f dg/f/ e<c cf/g/|a>fd<g f>d f/g/a/f/|a>f dg/f/ e<c cf/g/|a>fd<A d2 df/g/|
a>f dg/f/ e<c cf/g/|a>fd<A F>dA>F|(3GBG (3FdF E<CC>E|D>Fd<F A2 A|]
